X:1
T:Title
%%score { ( 1 4 ) | ( 2 3 ) }
L:1/8
Q:1/4=108
M:3/4
K:Ab
V:1 treble nm="Grand Piano"
V:4 treble 
V:2 treble 
V:3 treble 
V:1
 A2 E2 A2 | c2 B2 A2 | [Ae]4 [DGd]2 | [EAc]4 [A,EA]2 | F2 G2 [EA]2 | d4 c2 | c2 B2 A2 | G4 [FB]2 | %8
w: Samuel~Reay * *||||||||
 [Ee]4 G2 | F2 G2 A2 | G4 [=DF]2 | E6 | B2 c2 d2 | [Ec]4 [CA]2 | [CE]2 F2 [A,E_G]2 | %15
w: |||||||
 [A,DF]4 [A,FA]2 | [Fd]4 [FB]2 | G2 F2 E2 | A2 z2 z2 | [EB]4 [Ge]2 | [Fd]4 z2 | [FB]2 F2 A2 | %22
w: |||||||
 A4 z2 | [CEA]6 |] %24
w: ||
V:2
 [A,CE]2 [A,C]2 [A,CE]2 | [EA]2 [DG]2[K:bass] [A,C]2 | [C,C]4 B,,2 | A,,4 C,2 | [D,A,]4 [C,A,]2 | %5
 [F,A,D]4 [A,E]2 | [F,A,=D]4 [F,B,D]2 | [E,B,E]4 [=D,B,]2 | [C,C]4 [CE]2 | [CE]2- [G,CE]2 [F,CE]2 | %10
 [B,E]4 [B,,A,]2 | [E,G,]6 | [E,G,E]2 [E,A,E]2 [G,,B,E]2 | [A,,A,]4 [A,,A,]2 | A,4 z2 | D,4 D,2 | %16
 [B,,B,]4 [D,B,]2 | B,2 z2 z2 | E,4 z2 | [E,G,]4 [E,B,]2 | [F,A,]2 G,2 [A,CE]2 | [D,D]4 [F,A,D]2 | %22
 B,2 z2 z2 | A,,6 |] %24
V:3
 x6 | A,4[K:bass] z2 | x6 | x6 | x6 | x6 | x6 | x6 | x6 | A,2 z2 z2 | x6 | x6 | x6 | x6 | %14
 z2 D2 C,2 | x6 | x6 | [E,E]2- [E,A,E]2 [D,G,]2 | C,2 B,,2 [A,,A,]2 | x6 | x6 | x6 | [E,E]4 E,2 | %23
 x6 |] %24
V:4
 x6 | x6 | x6 | x6 | x6 | x6 | x6 | x6 | x6 | x6 | x6 | x6 | x6 | x6 | x6 | x6 | x6 | x6 | %18
 E2- [EB]2 [Ec]2 | x6 | z2 B,2 c2 | x6 | z2 C2 [DEG]2 | x6 |] %24

